X:1
L:1/4
Q:1/4=72
M:3/8
V:1
V:2 clef=bass 
K:C
[V:1] a/4g/4f/4e/4d/4c/4 | _B/A/(3[_BA]/4[GA]/4_B/4 | c d/4_e/4 | =e/>e/f/4A/4 |
[V:2] F,/4E/4[F,G,_B,]/4E/4[F,G,_B,]/4E/4 | F,/4A,/4C/4A,/4C/4A,/4 | F,/4A,/4C/4A,/4C/4A,/4 | E,/4A,/4C/4A,/4[D,D]/4F,/4 |
